src/images/svg/symbols/markets-stocks-and-indices/american-stocks/stocks-tesla-inc.svg

<svg width="32" height="32" viewBox="0 0 32 32" fill="none" xmlns="http://www.w3.org/2000/svg">
<path d="M0 16C0 7.16344 7.16344 0 16 0C24.8366 0 32 7.16344 32 16C32 24.8366 24.8366 32 16 32C7.16344 32 0 24.8366 0 16Z" fill="#E31937"/>
<path d="M6.56005 10.1114C9.53958 8.82954 12.7568 8.1933 16 8.24456C19.2432 8.1933 22.4604 8.82954 25.44 10.1114C25.6525 9.73647 25.8396 9.34771 26 8.94773C22.8179 7.67859 19.4258 7.01791 16 7C12.5738 7.01989 9.18172 7.68268 6 8.95395C6.15615 9.35381 6.34341 9.7408 6.56005 10.1114Z" fill="white"/>
<path d="M13.1997 11.1755L16 26.9129L18.8189 11.1755C21.4698 11.1755 22.3099 11.468 22.4281 12.6627C23.4937 12.2466 24.4254 11.5473 25.1226 10.6403C22.8975 9.64256 20.5073 9.06451 18.0722 8.93528L16.0062 11.4244L13.9403 8.93528C11.503 9.06318 9.11042 9.64127 6.88362 10.6403C7.57907 11.5464 8.50851 12.2457 9.57186 12.6627C9.69632 11.468 10.5364 11.1755 13.1997 11.1755Z" fill="white"/>
</svg>

<svg width="32" height="32" fill="none" xmlns="http://www.w3.org/2000/svg"><path d="M0 16C0 7.163 7.163 0 16 0s16 7.163 16 16-7.163 16-16 16S0 24.837 0 16Z" fill="#E31937"/><path d="M6.56 10.111A22.968 22.968 0 0 1 16 8.245c3.243-.052 6.46.585 9.44 1.866.212-.375.4-.763.56-1.163A27.38 27.38 0 0 0 16 7 27.38 27.38 0 0 0 6 8.954c.156.4.343.787.56 1.157Z" fill="#fff"/><path d="M13.2 11.175 16 26.913l2.819-15.738c2.65 0 3.49.293 3.61 1.488a6.28 6.28 0 0 0 2.694-2.023 19.796 19.796 0 0 0-7.05-1.705l-2.067 2.49-2.066-2.49a19.77 19.77 0 0 0-7.056 1.705 6.278 6.278 0 0 0 2.688 2.023c.124-1.195.964-1.488 3.628-1.488Z" fill="#fff"/></svg>
